X: 24
T: No_31_The_Mockingbird_Sings_in_the_Morning.krn
N: Derived from No_31_The_Mockingbird_Sings_in_the_Morning.krn
%%abc-version 2.0
%%abcx-abcm2ps-target-version 5.9.1 (29 Sep 2008)
%%abc-creator hum2abc beta
%%abcx-conversion-date 2019/03/15 08:25:35
%%humdrum-veritas 106304926
%%humdrum-veritas-data 804507545
%%linebreak <none>
%%barnumbers 0
L: 1/8
M: 2/4
K: G clef=bass
[K:clef=bass][M:2/4]G,G, G,G, | 
[M:5/8]A,/G,/G,G,G,G, | 
[M:2/4]G,D E/D/D/A,/ | 
DD A,A, | 
DE/D/ B,/A,/A,/G,/ | 
A,A, G,G, | 
G,G, A,A,/G,/ | 
A,F, G,G, | 
G,G, A,A,/G,/ | 
[M:5/8]A,F,A,/G,/G,G, | 
[M:3/8]A,/G,/G, z | 
[M:2/4]A,/G,/G, A,/G,/G, ]|:  
G,D E/D/D/A,/ | 
DD A,A, | 
DE/D/ B,/A,/B,/A,/ | 
A,A, G,G, | 
G,G, A,A,/G,/ | 
A,F, G, z | 
[M:3/4]G,G, A,A,/G,/ A,F, | 
[M:3/8]A,/G,/G,G,/D,/ | 
A,/G,/G,G,/D,/ | 
[M:2/4]A,G, A,A,/ z/ | 
A,G,/F,/ A,/G,/A,/G,/ | 
A,A, G,G, | 
G,G, A,A,/G,/ | 
A,A, G,G, | 
G,G, A,A,/G,/ | 
A,F, G,G, | 
G,G, A,A,/G,/ | 
[M:5/8]A,F,G,/G,/G, z | 
[M:3/8]A,/G,/G,G,/ z/ | 
[M:3/4]A,/G,/G, A,/G,/G, G,F, | 
A,A,/G,/ A,A, G, z | 
[M:2/4]G,G, A,A,/G,/ | 
A,A, G,G, | 
G,G, A,A,/G,/ | 
A,F, G,G, | 
[M:3/4]G,G, A,G, A,F, | 
[M:3/8]G,G,G,/D,/ | 
[M:2/4]G,2G, z | 
A,/G,/G, A,/G,/G, :|]  



